X:168
M:6/8
L:1/8
K:D
|: A3 cAc | ece g3 | "tr"f3 afd | efd cBA | "tr"B3 BdB | "tr"A3 AdF | G2B AFD | E3 D3 :|

